X: 33641
T: Rambler, The
R: jig
M: 6/8
K: Gmajor
|:D3 D2G|~E3 G2d|edB GAB|~A3 GFE|
D3 D2G|~E3 G2d|edB GAB|1 AGF G2G:|2 AGF GBc||
|:d2d GBd|~g3 ege|dBd edB|~A3 ABc|
d2d GBd|~g3 e/f/ge|dBd edB|1 AGF GBc:|2 AGF G2G||

